toolkits/global/packages/global-context/img/icons/tick.svg

<svg height="24" viewBox="0 0 24 24" width="24" xmlns="http://www.w3.org/2000/svg"><path d="m10.7679901 13.4882102-3.11097438-2.6987741c-.42862421-.3673054-1.06564993-.3077534-1.42283677.1330131s-.29927541 1.0958383.1293488 1.4631437l3.89719065 3.3672071c.4156393.359116 1.0431319.3157559 1.4054264-.0971157l6.093335-6.94397871c.3613513-.43716226.3096572-1.09278383-.115462-1.46437175s-1.0626796-.31842941-1.424031.11873285z" fill="#666" fill-rule="evenodd"/></svg>

<?xml version="1.0" encoding="UTF-8"?>
<svg width="24px" height="24px" viewBox="0 0 24 24" version="1.1" xmlns="http://www.w3.org/2000/svg" xmlns:xlink="http://www.w3.org/1999/xlink">
    <!-- Generator: Sketch 63.1 (92452) - https://sketch.com -->
    <title>icon-icon / tick</title>
    <desc>Created with Sketch.</desc>
    <g id="icon-/-tick" stroke="none" stroke-width="1" fill="none" fill-rule="evenodd">
        <path d="M10.7679901,13.4882102 L7.65701572,10.7894361 C7.22839151,10.4221307 6.59136579,10.4816827 6.23417895,10.9224492 C5.87699211,11.3632157 5.93490354,12.0182875 6.36352775,12.3855929 L10.2607184,15.7528 C10.6763577,16.111916 11.3038503,16.0685559 11.6661448,15.6556843 L17.7594798,8.71170559 L17.7594798,8.71170559 C18.1208311,8.27454333 18.069137,7.61892176 17.6440178,7.24733384 C17.2188986,6.87574592 16.5813382,6.92890443 16.2199868,7.36606669 L10.7679901,13.4882102 Z" id="tick" fill="#666666"></path>
    </g>
</svg>
